X:1
T:Final Fantasy X - To Zanarkand
M:3/4
L:1/8
Q:1/4=144
K:G
eE^G Bed|g6|dDF Ade|d6|
B2B2B2|B2A3d|F6|B6|
e2e2e2|e2d3f|c6-|c6|
E3 cEF|=G2F2E2|g3 Gb2|G6|
E3 cEF|G2F2G2|C3 GA3|B6|
G3 cEF|g2F2E2|D3 Eb2|c4Gb|
f2f2f2|c2a2D2|f3 Gge|f3 fGC|
EfG CEG|A4e2|A2d2=F2|D4g2|
B6|B4f2|^c6|b4e2|
B2^d4|c4c2|b2G2D2|^C4A2|
^C6|^G2E2^C2|c4^F2|b3 gb2|
^e6-|^e6|